static/img/logos/metabase.svg

<svg width="88" height="111" viewBox="0 0 88 111" fill="none" xmlns="http://www.w3.org/2000/svg">
<path d="M7.07392 35.5165C10.7157 35.5165 13.6679 32.5171 13.6679 28.8171C13.6679 25.1172 10.7157 22.1178 7.07392 22.1178C3.43219 22.1178 0.47998 25.1172 0.47998 28.8171C0.47998 32.5171 3.43219 35.5165 7.07392 35.5165Z" fill="white"/>
<path d="M7.07392 54.2748C10.7157 54.2748 13.6679 51.2754 13.6679 47.5754C13.6679 43.8755 10.7157 40.8761 7.07392 40.8761C3.43219 40.8761 0.47998 43.8755 0.47998 47.5754C0.47998 51.2754 3.43219 54.2748 7.07392 54.2748Z" fill="white"/>
<path opacity="0.2" d="M25.5371 35.5165C29.1788 35.5165 32.131 32.5171 32.131 28.8171C32.131 25.1172 29.1788 22.1178 25.5371 22.1178C21.8953 22.1178 18.9431 25.1172 18.9431 28.8171C18.9431 32.5171 21.8953 35.5165 25.5371 35.5165Z" fill="white"/>
<path d="M25.5371 54.457C29.1788 54.457 32.131 51.4576 32.131 47.7576C32.131 44.0577 29.1788 41.0583 25.5371 41.0583C21.8953 41.0583 18.9431 44.0577 18.9431 47.7576C18.9431 51.4576 21.8953 54.457 25.5371 54.457Z" fill="white"/>
<path opacity="0.2" d="M43.9999 35.5165C47.6417 35.5165 50.5939 32.5171 50.5939 28.8171C50.5939 25.1172 47.6417 22.1178 43.9999 22.1178C40.3582 22.1178 37.406 25.1172 37.406 28.8171C37.406 32.5171 40.3582 35.5165 43.9999 35.5165Z" fill="white"/>
<path opacity="0.2" d="M43.9999 14.0787C47.6417 14.0787 50.5939 11.0793 50.5939 7.37933C50.5939 3.67939 47.6417 0.679993 43.9999 0.679993C40.3582 0.679993 37.406 3.67939 37.406 7.37933C37.406 11.0793 40.3582 14.0787 43.9999 14.0787Z" fill="white"/>
<path opacity="0.2" d="M43.9999 54.457C47.6417 54.457 50.5939 51.4576 50.5939 47.7576C50.5939 44.0577 47.6417 41.0583 43.9999 41.0583C40.3582 41.0583 37.406 44.0577 37.406 47.7576C37.406 51.4576 40.3582 54.457 43.9999 54.457Z" fill="white"/>
<path opacity="0.2" d="M62.463 35.5165C66.1047 35.5165 69.0569 32.5171 69.0569 28.8171C69.0569 25.1172 66.1047 22.1178 62.463 22.1178C58.8212 22.1178 55.869 25.1172 55.869 28.8171C55.869 32.5171 58.8212 35.5165 62.463 35.5165Z" fill="white"/>
<path d="M80.9261 35.5165C84.5678 35.5165 87.52 32.5171 87.52 28.8171C87.52 25.1172 84.5678 22.1178 80.9261 22.1178C77.2844 22.1178 74.3322 25.1172 74.3322 28.8171C74.3322 32.5171 77.2844 35.5165 80.9261 35.5165Z" fill="white"/>
<path d="M62.463 54.457C66.1047 54.457 69.0569 51.4576 69.0569 47.7576C69.0569 44.0577 66.1047 41.0583 62.463 41.0583C58.8212 41.0583 55.869 44.0577 55.869 47.7576C55.869 51.4576 58.8212 54.457 62.463 54.457Z" fill="white"/>
<path d="M80.9261 54.457C84.5678 54.457 87.52 51.4576 87.52 47.7576C87.52 44.0577 84.5678 41.0583 80.9261 41.0583C77.2844 41.0583 74.3322 44.0577 74.3322 47.7576C74.3322 51.4576 77.2844 54.457 80.9261 54.457Z" fill="white"/>
<path d="M7.07392 73.0328C10.7157 73.0328 13.6679 70.0334 13.6679 66.3335C13.6679 62.6336 10.7157 59.6342 7.07392 59.6342C3.43219 59.6342 0.47998 62.6336 0.47998 66.3335C0.47998 70.0334 3.43219 73.0328 7.07392 73.0328Z" fill="white"/>
<path opacity="0.2" d="M25.5371 73.2151C29.1788 73.2151 32.131 70.2157 32.131 66.5157C32.131 62.8158 29.1788 59.8164 25.5371 59.8164C21.8953 59.8164 18.9431 62.8158 18.9431 66.5157C18.9431 70.2157 21.8953 73.2151 25.5371 73.2151Z" fill="white"/>
<path d="M43.9999 73.2151C47.6417 73.2151 50.5939 70.2157 50.5939 66.5157C50.5939 62.8158 47.6417 59.8164 43.9999 59.8164C40.3582 59.8164 37.406 62.8158 37.406 66.5157C37.406 70.2157 40.3582 73.2151 43.9999 73.2151Z" fill="white"/>
<path opacity="0.2" d="M62.463 73.2151C66.1047 73.2151 69.0569 70.2157 69.0569 66.5157C69.0569 62.8158 66.1047 59.8164 62.463 59.8164C58.8212 59.8164 55.869 62.8158 55.869 66.5157C55.869 70.2157 58.8212 73.2151 62.463 73.2151Z" fill="white"/>
<path d="M80.9261 73.2151C84.5678 73.2151 87.52 70.2157 87.52 66.5157C87.52 62.8158 84.5678 59.8164 80.9261 59.8164C77.2844 59.8164 74.3322 62.8158 74.3322 66.5157C74.3322 70.2157 77.2844 73.2151 80.9261 73.2151Z" fill="white"/>
<path d="M7.07392 91.791C10.7157 91.791 13.6679 88.7916 13.6679 85.0917C13.6679 81.3917 10.7157 78.3923 7.07392 78.3923C3.43219 78.3923 0.47998 81.3917 0.47998 85.0917C0.47998 88.7916 3.43219 91.791 7.07392 91.791Z" fill="white"/>
<path opacity="0.2" d="M25.5371 91.9732C29.1788 91.9732 32.131 88.9738 32.131 85.2739C32.131 81.5739 29.1788 78.5745 25.5371 78.5745C21.8953 78.5745 18.9431 81.5739 18.9431 85.2739C18.9431 88.9738 21.8953 91.9732 25.5371 91.9732Z" fill="white"/>
<path opacity="0.2" d="M43.9999 91.9732C47.6417 91.9732 50.5939 88.9738 50.5939 85.2739C50.5939 81.5739 47.6417 78.5745 43.9999 78.5745C40.3582 78.5745 37.406 81.5739 37.406 85.2739C37.406 88.9738 40.3582 91.9732 43.9999 91.9732Z" fill="white"/>
<path opacity="0.2" d="M43.9999 110.731C47.6417 110.731 50.5939 107.732 50.5939 104.032C50.5939 100.332 47.6417 97.3326 43.9999 97.3326C40.3582 97.3326 37.406 100.332 37.406 104.032C37.406 107.732 40.3582 110.731 43.9999 110.731Z" fill="white"/>
<path opacity="0.2" d="M62.463 91.9732C66.1047 91.9732 69.0569 88.9738 69.0569 85.2739C69.0569 81.5739 66.1047 78.5745 62.463 78.5745C58.8212 78.5745 55.869 81.5739 55.869 85.2739C55.869 88.9738 58.8212 91.9732 62.463 91.9732Z" fill="white"/>
<path d="M80.9261 91.9732C84.5678 91.9732 87.52 88.9738 87.52 85.2739C87.52 81.5739 84.5678 78.5745 80.9261 78.5745C77.2844 78.5745 74.3322 81.5739 74.3322 85.2739C74.3322 88.9738 77.2844 91.9732 80.9261 91.9732Z" fill="white"/>
</svg>

<svg width="88" height="111" viewBox="0 0 88 111" fill="none" xmlns="http://www.w3.org/2000/svg"><path d="M7.074 35.517c3.642 0 6.594-3 6.594-6.7s-2.952-6.7-6.594-6.7c-3.642 0-6.594 3-6.594 6.7s2.952 6.7 6.594 6.7zm0 18.758c3.642 0 6.594-3 6.594-6.7s-2.952-6.699-6.594-6.699c-3.642 0-6.594 3-6.594 6.7s2.952 6.699 6.594 6.699z" fill="#fff"/><path opacity=".2" d="M25.537 35.517c3.642 0 6.594-3 6.594-6.7s-2.952-6.7-6.594-6.7c-3.642 0-6.594 3-6.594 6.7s2.952 6.7 6.594 6.7z" fill="#fff"/><path d="M25.537 54.457c3.642 0 6.594-3 6.594-6.7s-2.952-6.699-6.594-6.699c-3.642 0-6.594 3-6.594 6.7s2.952 6.699 6.594 6.699z" fill="#fff"/><path opacity=".2" d="M44 35.517c3.642 0 6.594-3 6.594-6.7s-2.952-6.7-6.594-6.7c-3.642 0-6.594 3-6.594 6.7s2.952 6.7 6.594 6.7zm0-21.438c3.642 0 6.594-3 6.594-6.7S47.642.68 44 .68c-3.642 0-6.594 3-6.594 6.7s2.952 6.699 6.594 6.699zm0 40.378c3.642 0 6.594-3 6.594-6.7S47.642 41.059 44 41.059c-3.642 0-6.594 3-6.594 6.7s2.952 6.699 6.594 6.699zm18.463-18.94c3.642 0 6.594-3 6.594-6.7s-2.952-6.7-6.594-6.7c-3.642 0-6.594 3-6.594 6.7s2.952 6.7 6.594 6.7z" fill="#fff"/><path d="M80.926 35.517c3.642 0 6.594-3 6.594-6.7s-2.952-6.7-6.594-6.7c-3.642 0-6.594 3-6.594 6.7s2.952 6.7 6.594 6.7zm-18.463 18.94c3.642 0 6.594-3 6.594-6.7s-2.952-6.699-6.594-6.699c-3.642 0-6.594 3-6.594 6.7s2.952 6.699 6.594 6.699zm18.463 0c3.642 0 6.594-3 6.594-6.7s-2.952-6.699-6.594-6.699c-3.642 0-6.594 3-6.594 6.7s2.952 6.699 6.594 6.699zM7.074 73.033c3.642 0 6.594-3 6.594-6.7s-2.952-6.699-6.594-6.699c-3.642 0-6.594 3-6.594 6.7s2.952 6.699 6.594 6.699z" fill="#fff"/><path opacity=".2" d="M25.537 73.215c3.642 0 6.594-3 6.594-6.7s-2.952-6.699-6.594-6.699c-3.642 0-6.594 3-6.594 6.7s2.952 6.7 6.594 6.7z" fill="#fff"/><path d="M44 73.215c3.642 0 6.594-3 6.594-6.7S47.642 59.817 44 59.817c-3.642 0-6.594 3-6.594 6.7s2.952 6.7 6.594 6.7z" fill="#fff"/><path opacity=".2" d="M62.463 73.215c3.642 0 6.594-3 6.594-6.7s-2.952-6.699-6.594-6.699c-3.642 0-6.594 3-6.594 6.7s2.952 6.7 6.594 6.7z" fill="#fff"/><path d="M80.926 73.215c3.642 0 6.594-3 6.594-6.7s-2.952-6.699-6.594-6.699c-3.642 0-6.594 3-6.594 6.7s2.952 6.7 6.594 6.7zM7.074 91.791c3.642 0 6.594-3 6.594-6.7s-2.952-6.699-6.594-6.699c-3.642 0-6.594 3-6.594 6.7s2.952 6.699 6.594 6.699z" fill="#fff"/><path opacity=".2" d="M25.537 91.973c3.642 0 6.594-3 6.594-6.7s-2.952-6.698-6.594-6.698c-3.642 0-6.594 2.999-6.594 6.699 0 3.7 2.952 6.7 6.594 6.7zm18.463 0c3.642 0 6.594-3 6.594-6.7S47.642 78.576 44 78.576c-3.642 0-6.594 2.999-6.594 6.699 0 3.7 2.952 6.7 6.594 6.7zm0 18.758c3.642 0 6.594-2.999 6.594-6.699 0-3.7-2.952-6.7-6.594-6.7-3.642 0-6.594 3-6.594 6.7s2.952 6.699 6.594 6.699zm18.463-18.758c3.642 0 6.594-3 6.594-6.7s-2.952-6.698-6.594-6.698c-3.642 0-6.594 2.999-6.594 6.699 0 3.7 2.952 6.7 6.594 6.7z" fill="#fff"/><path d="M80.926 91.973c3.642 0 6.594-3 6.594-6.7s-2.952-6.698-6.594-6.698c-3.642 0-6.594 2.999-6.594 6.699 0 3.7 2.952 6.7 6.594 6.7z" fill="#fff"/></svg>
